src/assets/icon/shiba_inu-small.svg

<svg width="16" height="17" viewBox="0 0 16 17" fill="none" xmlns="http://www.w3.org/2000/svg">
<g clip-path="url(#clip0_351_20517)">
<path d="M11.7151 1.90762C11.2987 2.31933 10.9172 2.76556 10.5781 3.24137L10.4709 3.20685C9.85253 3.00716 9.21174 2.8839 8.56595 2.84198C8.37147 2.82719 7.6459 2.82719 7.40902 2.84198C6.69343 2.88883 6.14488 2.99484 5.52154 3.20932C5.49661 3.21918 5.47416 3.22658 5.45172 3.23397C5.10016 2.76063 4.7087 2.31687 4.27734 1.91009C6.34685 0.862324 8.76792 0.736592 10.9347 1.56248C11.1665 1.64876 11.3934 1.74984 11.6153 1.85832L11.7151 1.90762Z" fill="#F00500"/>
<path d="M15.5758 11.2584C15.2616 12.1435 14.7904 12.9644 14.1795 13.6794C13.8479 14.0639 13.4814 14.4165 13.0874 14.737C12.1649 15.4717 11.0877 15.9968 9.93827 16.2729C8.66665 16.5761 7.34017 16.5761 6.06855 16.2729C4.91661 15.9968 3.84197 15.4717 2.91942 14.737C2.52546 14.4165 2.15894 14.0639 1.82732 13.6794C0.0694871 11.6257 -0.464096 8.8054 0.431027 6.26364C0.600576 5.79276 0.812513 5.33914 1.06684 4.90771C1.18403 4.71048 1.32864 4.4886 1.39846 4.39738C1.63782 5.41557 1.93204 6.31048 2.04175 6.63344C2.03427 6.6507 2.02429 6.67042 2.01432 6.68768C1.43336 7.85131 1.1192 8.97304 1.0444 10.1663C1.0444 10.1811 1.0419 10.1983 1.0419 10.2131C1.02196 10.5706 1.03193 10.7407 1.09177 10.965C1.27877 11.6676 1.85475 12.4418 2.75735 13.2011C4.23592 14.4436 6.24059 15.341 7.75906 15.4445C9.34236 15.5505 11.6786 14.6359 13.2345 13.2997C13.4789 13.0852 13.7083 12.8584 13.9227 12.6168C14.0773 12.4393 14.3067 12.1336 14.2892 12.1336C14.2842 12.1336 14.2892 12.1287 14.2992 12.1237C14.3067 12.1188 14.3141 12.1114 14.3092 12.1065C14.3067 12.104 14.3117 12.0966 14.3191 12.0941C14.3266 12.0917 14.3316 12.0868 14.3291 12.0818C14.3266 12.0769 14.3291 12.072 14.3391 12.0695C14.3466 12.067 14.3491 12.0596 14.3466 12.0547C14.3441 12.0498 14.3466 12.0448 14.3516 12.0448C14.3565 12.0448 14.3615 12.0374 14.3615 12.0325C14.3615 12.0276 14.3665 12.0202 14.3715 12.0202C14.3765 12.0202 14.3815 12.0153 14.3815 12.0103C14.389 11.9906 14.4014 11.9709 14.4139 11.9536C14.4513 11.8969 14.6009 11.6331 14.6208 11.5888C14.763 11.2707 14.8527 10.9872 14.8951 10.7037C14.9151 10.5681 14.9275 10.3191 14.9175 10.2599C14.9151 10.2501 14.9151 10.2328 14.9126 10.2057C14.9076 10.1564 14.9051 10.0824 14.9001 10.0085C14.8951 9.89754 14.8851 9.74222 14.8777 9.6658C14.7704 8.54654 14.4812 7.6319 13.9327 6.66302C13.9102 6.62604 13.8903 6.58906 13.8778 6.55948C13.8728 6.55208 13.8703 6.54469 13.8678 6.53976C13.9451 6.31048 14.2618 5.35147 14.5136 4.25439L14.5186 4.25933L14.556 4.30863C14.6208 4.39492 14.7929 4.65131 14.8702 4.77458C15.2217 5.34161 15.496 5.95054 15.6905 6.5866C16.1418 8.11757 16.1044 9.74962 15.5758 11.2584Z" fill="#F00500"/>
<path d="M12.3402 8.31275C12.3327 8.35219 12.2155 8.47053 12.0984 8.55681C11.7543 8.80581 11.1384 9.03755 10.5126 9.14849C10.156 9.21259 9.79946 9.22245 9.69225 9.17068C9.62243 9.13617 9.61246 9.10905 9.6374 9.0203C9.68976 8.8354 9.85931 8.63324 10.1236 8.44341C10.2582 8.34726 10.8043 8.01937 11.0586 7.88131C11.4775 7.6545 11.8166 7.51891 12.046 7.48686C12.1183 7.477 12.2056 7.47453 12.233 7.48686C12.2779 7.50412 12.3277 7.63478 12.3477 7.79256C12.3577 7.87638 12.3527 8.24618 12.3402 8.31275Z" fill="black"/>
<path d="M6.46451 9.12856C6.44955 9.15814 6.37475 9.19019 6.28998 9.20252C6.2052 9.21485 5.94589 9.20745 5.79878 9.19019C5.27019 9.12116 4.70918 8.96092 4.30026 8.76369C4.07087 8.65275 3.90631 8.54181 3.78413 8.42101L3.71432 8.34952L3.70684 8.25583C3.69437 8.09312 3.69687 7.83673 3.71681 7.74551C3.72928 7.66908 3.75671 7.59512 3.79411 7.52856C3.81405 7.50391 3.81405 7.50391 3.90382 7.50391C4.01352 7.50391 4.10578 7.52116 4.25538 7.56801C4.56207 7.66169 5.01836 7.8885 5.57438 8.21885C6.03316 8.49004 6.2052 8.62317 6.33735 8.8056C6.42711 8.91901 6.48695 9.07925 6.46451 9.12856Z" fill="black"/>
<path d="M9.9958 12.5606C9.9958 12.5679 9.96588 12.6863 9.92848 12.8268C9.89108 12.9673 9.86116 13.0807 9.86116 13.0857C9.83373 13.0881 9.8088 13.0906 9.78137 13.0881H9.70158L9.59187 13.3445C9.53203 13.4851 9.47718 13.6157 9.4697 13.6354L9.45474 13.67L9.40238 13.5861L9.35002 13.5023V12.8194L9.33007 12.8243C9.28768 12.8342 8.98598 12.8736 8.85383 12.886C8.30778 12.9402 7.75924 12.9279 7.21568 12.8515C7.12842 12.8391 7.05361 12.8293 7.05112 12.8317C7.04863 12.8342 7.05112 12.992 7.05611 13.1867L7.06359 13.5368L7.0212 13.6009C6.99876 13.6354 6.97632 13.665 6.97632 13.6675C6.96884 13.6749 6.94391 13.6354 6.88656 13.522C6.82422 13.4037 6.77934 13.278 6.74693 13.1473L6.72948 13.0758L6.65218 13.0807L6.57489 13.0881L6.55494 12.9969C6.54497 12.9476 6.5325 12.8712 6.52751 12.8293L6.52003 12.7504L6.4552 12.6937C6.4178 12.6616 6.3804 12.6296 6.37292 12.6247C6.36046 12.6148 6.35547 12.5975 6.35547 12.5827V12.5532L6.66714 12.5556L6.97881 12.5581L6.98879 12.5901L6.99876 12.6222L7.10598 12.6271C7.16582 12.6296 7.35531 12.6345 7.52486 12.6394L7.83654 12.6468L7.91633 12.5236L7.9986 12.4003H8.10333L8.10083 12.1439L8.09834 11.8875L7.9612 11.8283C7.51988 11.6361 7.26057 11.4166 7.16332 11.1504C7.14338 11.0961 7.14338 11.0764 7.13839 10.8299C7.1359 10.5858 7.1359 10.5636 7.15335 10.5094C7.18826 10.3861 7.2855 10.29 7.41017 10.2579C7.45256 10.2456 7.56476 10.2456 8.1532 10.2456L8.84635 10.2481L8.92365 10.2851C9.0159 10.3294 9.05829 10.3615 9.11065 10.4305C9.17049 10.5094 9.18795 10.571 9.18795 10.7214C9.18795 10.9359 9.17299 11.1208 9.15055 11.1948C9.11813 11.2958 9.06826 11.392 9.00593 11.4783C8.88126 11.6361 8.65436 11.7938 8.44741 11.8653L8.38757 11.8875L8.39007 12.1464L8.39256 12.4052L8.44741 12.4102L8.50227 12.4151L8.57707 12.526L8.64938 12.637H8.98349C9.168 12.637 9.33007 12.6394 9.34503 12.6419C9.36996 12.6468 9.37495 12.6444 9.39988 12.6025L9.4298 12.5581H9.71654C9.93097 12.5482 9.9958 12.5532 9.9958 12.5606Z" fill="black"/>
<path d="M8.67933 13.2677C8.63195 13.2948 8.59954 13.3071 8.59206 13.3022C8.58458 13.2997 8.54967 13.2701 8.51227 13.243L8.44495 13.1888L8.37513 13.2627C8.22304 13.4254 8.21805 13.4328 8.17317 13.4353C8.10335 13.4427 8.0884 13.4304 8.00362 13.3046C7.95874 13.2405 7.92383 13.1863 7.92383 13.1863C7.92383 13.1863 7.89142 13.1814 7.85402 13.1789L7.7842 13.1715L7.75179 13.2381L7.71938 13.3046L7.66203 13.2874C7.61715 13.2726 7.57227 13.2553 7.52988 13.2356L7.45508 13.1986V13.0581L8.11832 13.0606L8.78155 13.063L8.78405 13.1296C8.78654 13.2085 8.78903 13.206 8.67933 13.2677Z" fill="black"/>
<path d="M14.9132 10.26C14.9107 10.2501 14.9107 10.2329 14.9082 10.2058C14.3098 10.1417 12.6018 10.1022 11.016 11.3965C11.016 11.3965 10.5049 9.0791 8.11126 9.0791C5.71762 9.0791 4.82998 11.3965 4.82998 11.3965C3.48854 9.96909 1.69331 10.0726 1.04503 10.1663C1.04503 10.1811 1.04254 10.1984 1.04254 10.2132C1.02259 10.5706 1.03257 10.7407 1.09241 10.9651C1.27941 11.6677 1.85538 12.4418 2.75798 13.2011C4.23656 14.4437 6.24123 15.341 7.7597 15.4446C9.34299 15.5506 11.6793 14.636 13.2352 13.2997C13.4795 13.0853 13.7089 12.8585 13.9233 12.6169C14.0779 12.4393 14.3073 12.1336 14.2899 12.1336C14.2849 12.1336 14.2899 12.1287 14.2998 12.1238C14.3073 12.1189 14.3148 12.1115 14.3098 12.1065C14.3073 12.1041 14.3123 12.0967 14.3198 12.0942C14.3273 12.0917 14.3322 12.0868 14.3297 12.0819C14.3273 12.0769 14.3297 12.072 14.3397 12.0695C14.3472 12.0671 14.3497 12.0597 14.3472 12.0548C14.3447 12.0498 14.3472 12.0449 14.3522 12.0449C14.3572 12.0449 14.3622 12.0375 14.3622 12.0326C14.3622 12.0276 14.3671 12.0202 14.3721 12.0202C14.3771 12.0202 14.3821 12.0153 14.3821 12.0104C14.3896 11.9907 14.4021 11.9709 14.4145 11.9537C14.4519 11.897 14.6015 11.6332 14.6215 11.5888C14.7636 11.2708 14.8534 10.9873 14.8957 10.7038C14.9107 10.5682 14.9232 10.3192 14.9132 10.26ZM8.67975 13.2677C8.63238 13.2948 8.59996 13.3071 8.59248 13.3022C8.585 13.2997 8.5501 13.2702 8.51269 13.243L8.44537 13.1888L8.37556 13.2628C8.22346 13.4255 8.21848 13.4329 8.1736 13.4353C8.10378 13.4427 8.08882 13.4304 8.00405 13.3047C7.95917 13.2406 7.92426 13.1863 7.92426 13.1863C7.92426 13.1863 7.89185 13.1814 7.85445 13.1789L7.78463 13.1716L7.75221 13.2381L7.7198 13.3047L7.66245 13.2874C7.61757 13.2726 7.57269 13.2554 7.53031 13.2356L7.45551 13.1987V13.0581L8.11874 13.0606L8.78198 13.0631L8.78447 13.1296C8.78697 13.2085 8.78946 13.2061 8.67975 13.2677ZM9.92644 12.8239C9.88904 12.9645 9.85912 13.0779 9.85912 13.0828C9.83169 13.0853 9.80676 13.0877 9.77933 13.0853H9.69954L9.59233 13.3441C9.53249 13.4846 9.47763 13.6153 9.47015 13.635L9.45519 13.6695L9.40283 13.5857L9.35047 13.5019V12.819L9.33052 12.8239C9.28814 12.8338 8.98644 12.8732 8.85429 12.8856C8.30824 12.9398 7.7597 12.9275 7.21614 12.8511C7.12887 12.8387 7.05407 12.8289 7.05158 12.8313C7.04908 12.8338 7.05158 12.9916 7.05657 13.1863L7.06404 13.5364L7.02166 13.6005C6.99922 13.635 6.97678 13.6646 6.97678 13.6671C6.9693 13.6745 6.94436 13.635 6.88701 13.5216C6.82468 13.4033 6.7798 13.2776 6.74739 13.1469L6.72993 13.0754L6.65264 13.0803L6.57534 13.0877L6.55539 12.9965C6.54542 12.9472 6.53295 12.8708 6.52797 12.8289L6.52049 12.75L6.45566 12.6933C6.41826 12.6612 6.38086 12.6292 6.37338 12.6242C6.36091 12.6144 6.35592 12.5971 6.35592 12.5823V12.5528L6.6676 12.5552L6.97927 12.5577L6.98924 12.5897L6.99922 12.6218L7.10643 12.6267C7.16627 12.6292 7.35577 12.6341 7.52532 12.639L7.83699 12.6464L7.91678 12.5232L7.99906 12.3999H8.10378L8.10129 12.1435L8.09879 11.8871L7.96166 11.8279C7.52033 11.6356 7.26102 11.4162 7.16378 11.15C7.14383 11.0957 7.14383 11.076 7.13884 10.8295C7.13635 10.5854 7.13635 10.5632 7.1538 10.509C7.18871 10.3857 7.28595 10.2896 7.41062 10.2575C7.45301 10.2452 7.56521 10.2452 8.15365 10.2452L8.84681 10.2477L8.9241 10.2846C9.01636 10.329 9.05874 10.3611 9.1111 10.4301C9.17095 10.509 9.1884 10.5706 9.1884 10.721C9.1884 10.9355 9.17344 11.1204 9.151 11.1944C9.11859 11.2954 9.06872 11.3916 9.00638 11.4779C8.88172 11.6356 8.65482 11.7934 8.44787 11.8649L8.38803 11.8871L8.39052 12.146L8.39301 12.4048L8.44787 12.4098L8.50272 12.4147L8.57753 12.5256L8.64983 12.6366H8.98394C9.16845 12.6366 9.33052 12.639 9.34548 12.6415C9.37042 12.6464 9.37541 12.644 9.40034 12.6021L9.43026 12.5577H9.717C9.93891 12.5577 10.0037 12.5601 10.0037 12.5675C9.99625 12.5651 9.96384 12.6859 9.92644 12.8239Z" fill="white"/>
<path d="M14.8923 10.0087C14.8873 9.89779 14.8773 9.74247 14.8698 9.66605C14.7626 8.54679 14.4734 7.63215 13.9248 6.66327C13.9024 6.62629 13.8824 6.58931 13.87 6.55973C13.865 6.55233 13.8625 6.54494 13.86 6.54001C13.9373 6.31073 14.254 5.35172 14.5058 4.25465C14.8474 2.76558 15.0643 1.02506 14.4011 0.502411C14.4011 0.502411 13.2541 0.41859 11.7182 1.90765C11.3018 2.31936 10.9203 2.76559 10.5812 3.24139L10.474 3.20688C9.85564 3.00719 9.21484 2.88392 8.56906 2.84201C8.37458 2.82722 7.649 2.82722 7.41213 2.84201C6.69653 2.88885 6.14799 2.99486 5.52465 3.20934C5.49971 3.21921 5.47727 3.2266 5.45483 3.234C5.10327 2.76065 4.71181 2.3169 4.28045 1.91012C2.6822 0.41366 1.49286 0.499946 1.49286 0.499946C0.789725 1.03985 1.02909 2.85927 1.39312 4.39763C1.63249 5.41582 1.9267 6.31073 2.03641 6.63369C2.02893 6.65095 2.01896 6.67067 2.00899 6.68793C1.42803 7.85156 1.11386 8.97329 1.03906 10.1665C1.68983 10.0728 3.48257 9.96682 4.8265 11.3967C4.8265 11.3967 5.71414 9.0793 8.10779 9.0793C10.5014 9.0793 11.0126 11.3967 11.0126 11.3967C12.5984 10.1024 14.3063 10.1443 14.9047 10.206C14.9022 10.1566 14.8973 10.0827 14.8923 10.0087ZM2.50766 5.70426C2.50766 5.70426 1.57514 3.39918 1.8145 2.08269C1.8544 1.86081 1.9292 1.66605 2.04639 1.51813C2.04639 1.51813 3.10358 1.62167 4.80905 3.49532C4.80905 3.49532 4.48491 3.65064 4.05106 3.98099C4.05106 3.98099 4.04857 3.98346 4.04607 3.98346C3.57483 4.34093 2.97143 4.90796 2.50766 5.70426ZM6.46465 9.12861C6.44969 9.15819 6.37489 9.19024 6.29011 9.20257C6.20534 9.21489 5.94603 9.2075 5.79892 9.19024C5.27032 9.12121 4.70931 8.96096 4.3004 8.76374C4.07101 8.6528 3.90645 8.54186 3.78427 8.42106L3.71446 8.34956L3.70698 8.25588C3.69451 8.09317 3.697 7.83677 3.71695 7.74556C3.72942 7.66913 3.75684 7.59517 3.79424 7.5286C3.81419 7.50395 3.81419 7.50395 3.90395 7.50395C4.01366 7.50395 4.10592 7.52121 4.25552 7.56805C4.5622 7.66173 5.01849 7.88854 5.57452 8.2189C6.0333 8.49008 6.20534 8.62321 6.33749 8.80565C6.42725 8.91905 6.48709 9.0793 6.46465 9.12861ZM12.339 8.31258C12.3316 8.35203 12.2144 8.47036 12.0972 8.55665C11.7531 8.80565 11.1372 9.03739 10.5114 9.14833C10.1548 9.21243 9.7983 9.22229 9.69108 9.17052C9.62127 9.136 9.61129 9.10888 9.63623 9.02013C9.68859 8.83523 9.85814 8.63307 10.1224 8.44324C10.2571 8.3471 10.8031 8.01921 11.0575 7.88115C11.4763 7.65434 11.8154 7.51874 12.0448 7.4867C12.1171 7.47683 12.2044 7.47437 12.2318 7.4867C12.2767 7.50395 12.3266 7.63461 12.3465 7.7924C12.3565 7.87622 12.3515 8.24602 12.339 8.31258ZM11.9251 3.98099L11.9202 3.97853C11.5013 3.64817 11.1871 3.49286 11.1871 3.49286C12.8352 1.61921 13.855 1.51566 13.855 1.51566C13.9672 1.66605 14.0395 1.85834 14.0794 2.08022C14.3113 3.39671 13.4112 5.70426 13.4112 5.70426C13.0347 5.04109 12.5285 4.45434 11.9251 3.98099Z" fill="#FFA409"/>
<path d="M14.0823 2.08019C13.8878 2.05553 12.9678 2.0506 11.9255 3.98096L11.9206 3.97849C11.5017 3.64814 11.1875 3.49282 11.1875 3.49282C12.8356 1.61917 13.8554 1.51562 13.8554 1.51562C13.9701 1.66601 14.0424 1.85831 14.0823 2.08019Z" fill="#FF9300"/>
<path d="M13.4143 5.70413C13.0353 5.03849 12.5317 4.45421 11.9258 3.98086C12.968 2.05051 13.8856 2.05544 14.0826 2.08009C14.3144 3.39904 13.4143 5.70413 13.4143 5.70413Z" fill="#FF8300"/>
<path d="M14.1194 2.08747C14.107 2.08501 14.0945 2.08254 14.082 2.08008L14.1194 2.08747Z" fill="#FF8300"/>
<path d="M4.80954 3.49282C4.80954 3.49282 4.4854 3.64814 4.05155 3.97849C4.05155 3.97849 4.04906 3.98096 4.04657 3.98096C2.96693 2.04814 2.01696 2.05553 1.8125 2.08019C1.85239 1.85831 1.9272 1.66354 2.04439 1.51563C2.04688 1.51563 3.10407 1.61917 4.80954 3.49282Z" fill="#FF9300"/>
<path d="M4.04875 3.98086C3.57501 4.3408 2.97161 4.90536 2.50784 5.70413C2.50784 5.70413 1.57532 3.39904 1.81468 2.08009C2.01665 2.05544 2.96911 2.05051 4.04875 3.98086Z" fill="#FF8300"/>
<path d="M1.81528 2.08008C1.80282 2.08254 1.78786 2.08501 1.77539 2.08747L1.81528 2.08008Z" fill="#FF8300"/>
<path d="M10.8904 6.98373C10.8904 6.98373 10.0925 7.03304 10.1922 6.4167C10.292 5.80037 10.9153 5.72641 11.0898 5.75107C11.2644 5.77572 11.9625 6.02225 11.8379 6.53997C11.7132 7.05769 11.5386 6.95908 11.4389 6.98373C11.3392 7.00838 10.8904 6.98373 10.8904 6.98373Z" fill="white"/>
<path d="M5.0056 6.98373C5.0056 6.98373 4.20772 7.03304 4.30746 6.4167C4.40719 5.80037 5.03053 5.72641 5.20507 5.75107C5.37961 5.77572 6.07775 6.02225 5.95308 6.53997C5.82842 7.05769 5.65388 6.95908 5.55414 6.98373C5.45441 7.00838 5.0056 6.98373 5.0056 6.98373Z" fill="white"/>
</g>
<defs>
<clipPath id="clip0_351_20517">
<rect width="16" height="16" fill="white" transform="translate(0 0.5)"/>
</clipPath>
</defs>
</svg>

<svg xmlns="http://www.w3.org/2000/svg" width="16" height="17" fill="none" xmlns:v="https://vecta.io/nano"><g clip-path="url(#A)"><g fill="#f00500"><path d="M11.715 1.908a10.25 10.25 0 0 0-1.137 1.334l-.107-.035a7.86 7.86 0 0 0-1.905-.365 15.08 15.08 0 0 0-1.157 0 6.81 6.81 0 0 0-1.887.367l-.07.025A10.07 10.07 0 0 0 4.277 1.91a8.25 8.25 0 0 1 6.657-.348c.232.086.459.187.681.296l.1.049zm3.861 9.35a7.67 7.67 0 0 1-1.396 2.421c-.332.385-.698.737-1.092 1.058-.923.735-2 1.26-3.149 1.536a8.35 8.35 0 0 1-3.87 0c-1.152-.276-2.227-.801-3.149-1.536a8.64 8.64 0 0 1-1.092-1.058A7.54 7.54 0 0 1 .431 6.264c.17-.471.381-.924.636-1.356l.332-.51.643 2.236c-.007.017-.017.037-.027.054-.581 1.164-.895 2.285-.97 3.479l-.002.047c-.02.357-.01.528.05.752.187.703.763 1.477 1.666 2.236 1.479 1.242 3.483 2.14 5.002 2.243 1.583.106 3.92-.809 5.475-2.145a7.77 7.77 0 0 0 .688-.683c.155-.178.384-.483.366-.483.018-.015.025-.022.02-.027.017-.015.022-.02.02-.025.018-.015.02-.022.018-.027.01-.01.015-.017.015-.022.015-.012.02-.017.02-.022.007-.02.02-.039.032-.057.037-.057.187-.32.207-.365.142-.318.232-.602.274-.885a2.48 2.48 0 0 0 .022-.444c-.002-.01-.002-.027-.005-.054l-.012-.197-.022-.343a7.18 7.18 0 0 0-.945-3.003.85.85 0 0 1-.055-.104c-.005-.007-.008-.015-.01-.02l.646-2.285.005.005.037.049c.065.086.237.343.314.466a7.72 7.72 0 0 1 .82 1.812 7.61 7.61 0 0 1-.115 4.672z"/></g><g fill="#000"><path d="M12.34 8.313c-.007.039-.125.158-.242.244-.344.249-.96.481-1.586.592-.357.064-.713.074-.82.022-.07-.035-.08-.062-.055-.15.052-.185.222-.387.486-.577.135-.096.681-.424.935-.562.419-.227.758-.362.987-.394.072-.01.16-.012.187 0 .045.017.095.148.115.306a3.97 3.97 0 0 1-.008.52zm-5.875.816c-.015.03-.09.062-.175.074s-.344.005-.491-.012c-.529-.069-1.09-.229-1.499-.426-.229-.111-.394-.222-.516-.343l-.07-.071-.007-.094c-.012-.163-.01-.419.01-.51a.67.67 0 0 1 .077-.217c.02-.025.02-.025.11-.025a1.09 1.09 0 0 1 .352.064c.307.094.763.32 1.319.651.459.271.631.404.763.587.09.113.15.274.127.323zm3.531 3.432a6.34 6.34 0 0 1-.067.266l-.067.259c-.027.002-.052.005-.08.002h-.08l-.11.256-.122.291-.015.035-.052-.084-.052-.084v-.683l-.02.005c-.042.01-.344.049-.476.062-.546.054-1.095.042-1.638-.034l-.165-.02c-.002.002 0 .16.005.355l.007.35-.042.064-.045.067c-.007.007-.032-.032-.09-.146s-.107-.244-.14-.375l-.017-.072-.077.005-.077.007-.02-.091-.027-.168-.007-.079-.065-.057-.082-.069c-.012-.01-.017-.027-.017-.042v-.03l.312.002.312.002.01.032.01.032.107.005.419.012.312.007.08-.123.082-.123h.105l-.002-.256-.002-.256-.137-.059c-.441-.192-.701-.412-.798-.678-.02-.054-.02-.074-.025-.32s-.002-.266.015-.321a.36.36 0 0 1 .257-.252c.042-.012.155-.012.743-.012l.693.003.077.037c.092.044.135.076.187.145.06.079.077.14.077.291 0 .215-.015.399-.037.473a1.02 1.02 0 0 1-.145.284 1.33 1.33 0 0 1-.559.387l-.06.022.002.259.002.259.055.005.055.005.075.111.072.111h.334l.362.005c.025.005.03.002.055-.039l.03-.044h.287c.214-.01.279-.005.279.003z"/><path d="M8.679 13.268c-.047.027-.08.039-.087.034s-.042-.032-.08-.059l-.067-.054-.07.074c-.152.163-.157.17-.202.173-.07.007-.085-.005-.17-.131l-.08-.118-.07-.007-.07-.007-.032.067-.032.067-.057-.017a1.23 1.23 0 0 1-.132-.052l-.075-.037v-.141l.663.003.663.002.003.067c.002.079.005.076-.105.138z"/></g><path d="M14.913 10.26c-.002-.01-.002-.027-.005-.054-.598-.064-2.306-.104-3.892 1.191 0 0-.511-2.317-2.905-2.317S4.83 11.397 4.83 11.397c-1.341-1.427-3.137-1.324-3.785-1.23 0 .015-.002.032-.002.047-.02.357-.01.527.05.752.187.703.763 1.477 1.666 2.236 1.479 1.243 3.483 2.14 5.002 2.243 1.583.106 3.92-.809 5.476-2.145.244-.214.474-.441.688-.683.155-.178.384-.483.367-.483.017-.015.025-.022.02-.027.018-.015.022-.02.02-.025.018-.015.02-.022.018-.027.01-.01.015-.017.015-.022.015-.012.02-.017.02-.022a.26.26 0 0 1 .032-.057c.037-.057.187-.32.207-.365.142-.318.232-.602.274-.885.015-.136.027-.385.018-.444zM8.68 13.268c-.047.027-.08.039-.087.034s-.042-.032-.08-.059l-.067-.054-.07.074c-.152.163-.157.17-.202.172-.07.007-.085-.005-.17-.131l-.08-.118-.07-.007-.07-.007-.032.066-.032.067-.057-.017c-.045-.015-.09-.032-.132-.052l-.075-.037v-.141l.663.003.663.002.002.066c.002.079.005.076-.105.138zm1.247-.444l-.067.259c-.027.002-.052.005-.08.002H9.7l-.107.259-.122.291-.015.034-.052-.084-.052-.084v-.683l-.02.005c-.042.01-.344.049-.476.062-.546.054-1.095.042-1.638-.034l-.165-.02c-.003.002 0 .16.005.355l.007.35-.042.064-.045.067c-.007.007-.032-.032-.09-.146s-.107-.244-.14-.375l-.017-.072-.077.005-.077.007-.02-.091-.027-.168-.007-.079-.065-.057-.082-.069c-.012-.01-.017-.027-.017-.042v-.03l.312.002.312.003.01.032.01.032.107.005.419.012.312.007.08-.123.082-.123h.105l-.002-.256-.003-.256-.137-.059c-.441-.192-.701-.412-.798-.678-.02-.054-.02-.074-.025-.321s-.002-.266.015-.32a.36.36 0 0 1 .257-.252c.042-.012.155-.012.743-.012l.693.002.077.037c.092.044.135.077.187.146.06.079.077.141.077.291 0 .214-.015.399-.037.473a1.02 1.02 0 0 1-.145.284 1.33 1.33 0 0 1-.559.387l-.06.022.002.259.002.259.055.005.055.005.075.111.072.111h.334l.362.005c.025.005.03.002.055-.039l.03-.044h.287l.287.01c-.007-.002-.04.118-.077.256z" fill="#fff"/><path d="M14.892 10.009l-.023-.343a7.17 7.17 0 0 0-.945-3.003c-.022-.037-.042-.074-.055-.104-.005-.007-.007-.015-.01-.02l.646-2.285c.342-1.489.558-3.23-.105-3.752 0 0-1.147-.084-2.683 1.405-.416.412-.798.858-1.137 1.334l-.107-.035a7.86 7.86 0 0 0-1.905-.365 15.08 15.08 0 0 0-1.157 0c-.716.047-1.264.153-1.887.367l-.07.025A10.07 10.07 0 0 0 4.28 1.91C2.682.414 1.493.5 1.493.5c-.703.54-.464 2.359-.1 3.898l.643 2.236c-.007.017-.017.037-.027.054-.581 1.164-.895 2.285-.97 3.479.651-.094 2.444-.2 3.787 1.23 0 0 .888-2.317 3.281-2.317s2.905 2.317 2.905 2.317a5.36 5.36 0 0 1 3.892-1.191l-.012-.197zM2.508 5.704s-.933-2.305-.693-3.622c.04-.222.115-.417.232-.565 0 0 1.057.104 2.763 1.977 0 0-.324.155-.758.486-.476.36-1.08.927-1.543 1.723zm3.957 3.424c-.015.03-.09.062-.175.074s-.344.005-.491-.012c-.529-.069-1.09-.229-1.499-.426-.229-.111-.394-.222-.516-.343l-.07-.072-.007-.094c-.012-.163-.01-.419.01-.51.012-.076.04-.15.077-.217.02-.025.02-.025.11-.025a1.09 1.09 0 0 1 .352.064c.307.094.763.32 1.319.651.459.271.631.404.763.587.09.113.15.274.127.323zm5.874-.816c-.007.039-.125.158-.242.244-.344.249-.96.481-1.586.592-.357.064-.713.074-.82.022-.07-.035-.08-.062-.055-.15.052-.185.222-.387.486-.577a15.31 15.31 0 0 1 .935-.562c.419-.227.758-.362.987-.394.072-.01.16-.012.187 0 .045.017.095.148.115.306a3.97 3.97 0 0 1-.008.52zm-.414-4.332l-.005-.002c-.419-.33-.733-.486-.733-.486 1.648-1.874 2.668-1.977 2.668-1.977.112.15.184.343.224.565.232 1.316-.668 3.624-.668 3.624a5.89 5.89 0 0 0-1.486-1.723z" fill="#ffa409"/><path d="M14.082 2.08c-.194-.025-1.114-.03-2.157 1.901l-.005-.002c-.419-.33-.733-.486-.733-.486 1.648-1.874 2.668-1.977 2.668-1.977a1.3 1.3 0 0 1 .227.565z" fill="#ff9300"/><g fill="#ff8300"><path d="M13.414 5.704c-.379-.666-.883-1.25-1.489-1.723 1.042-1.93 1.96-1.925 2.157-1.901.232 1.319-.668 3.624-.668 3.624z"/><path d="M14.119 2.087l-.037-.007.037.007z"/></g><path d="M4.81 3.493s-.324.155-.758.486C2.967 2.048 2.017 2.056 1.813 2.08c.04-.222.115-.417.232-.565.002 0 1.06.104 2.765 1.977z" fill="#ff9300"/><g fill="#ff8300"><path d="M4.049 3.981c-.474.36-1.077.925-1.541 1.723 0 0-.933-2.305-.693-3.624.202-.025 1.154-.03 2.234 1.901z"/><path d="M1.815 2.08l-.04.007.04-.007z"/></g><g fill="#fff"><use href="#B"/><path d="M5.006 6.984s-.798.049-.698-.567.723-.69.898-.666.873.271.748.789-.299.419-.399.444-.549 0-.549 0z"/></g></g><defs><clipPath id="A"><path fill="#fff" transform="translate(0 .5)" d="M0 0h16v16H0z"/></clipPath><path id="B" d="M10.89 6.984s-.798.049-.698-.567.723-.69.898-.666.873.271.748.789-.299.419-.399.444-.549 0-.549 0z"/></defs></svg>
